X: 28
T: Adieu m'amour adieu ma joye
N: Derived from Duf3017-Adieu_mamour_adieu_ma_joye.krn
C: Guillaume Du Fay
%%abc-version 2.0
%%abcx-abcm2ps-target-version 5.9.1 (29 Sep 2008)
%%abc-creator hum2abc beta
%%abcx-conversion-date 2019/02/16 20:31:47
%%abc-edited-by Jesse Rodin
%%abc-edited-by Alejandro Planchart
%%abcx-initial-encoding-date 2016/04/01/
%%humdrum-veritas 1437612747
%%humdrum-veritas-data 2220339849
%%linebreak <none>
%%barnumbers 0
L: 1/4
M: 4/2
Q: 1/2=120
V: 1 clef=treble
V: 2 clef=treble-8
V: 3 clef=treble-8
K: F
[V:1] C8- | 
[V:2] C8 | 
[V:3] c8 | 
[V:1] C4D2E2 | 
[V:2] F8 | 
[V:3] A8- | 
[V:1] F4E4 | 
[V:2] c6=B2 | 
[V:3] A8 | 
[V:1] D6C2 | 
[V:2] A6G2 | 
[V:3] F6E2 | 
[V:1] E8 | 
[V:2] G8 | 
[V:3] C8 | 
[V:1] D2C2C4- | 
[V:2] A8 | 
[V:3] F8 | 
[V:1] C4E2F2 | 
[V:2] F4C4- | 
[V:3] A2B2c4- | 
[V:1] G4A4- | 
[V:2] C4c4- | 
[V:3] c4F4 | 
[V:1] A2F2G4- | 
[V:2] c4G4 | 
[V:3] A4B4 | 
[V:1] G2D2E2DE | 
[V:2] =B6A2 | 
[V:3] G8 | 
[V:1] F8 | 
[V:2] c8- | 
[V:3] F8- | 
[V:1] z4A4 | 
[V:2] c8 | 
[V:3] F8 | 
[V:1] A4A4 | 
[V:2] d8 | 
[V:3] z4F4 | 
[V:1] G4G4 | 
[V:2] e6c2- | 
[V:3] E4E4 | 
[V:1] A8 | 
[V:2] c2f4e2 | 
[V:3] F4F4 | 
[V:1] B6A2 | 
[V:2] d8 | 
[V:3] G4G4 | 
[V:1] F6G2 | 
[V:2] D8 | 
[V:3] A8 | 
[V:1] A4B4 | 
[V:2] z4d4- | 
[V:3] F4G4- | 
[V:1] G2A4G2 | 
[V:2] d4=B4 | 
[V:3] G2F2D4 | 
[V:1] E2D2D4- | 
[V:2] c4A4 | 
[V:3] C4F4 | 
[V:1] D4^C4 | 
[V:2] G6F2 | 
[V:3] E8 | 
[V:1] D8 | 
[V:2] A8 | 
[V:3] D8- | 
[V:1] z8 | 
[V:2] B4A4 | 
[V:3] D8 | 
[V:1] F4F4 | 
[V:2] d8 | 
[V:3] z8 | 
[V:1] A6B2 | 
[V:2] c8 | 
[V:3] F4F4 | 
[V:1] c6B2 | 
[V:2] F8 | 
[V:3] A6B2 | 
[V:1] A3GG3F | 
[V:2] z4C4 | 
[V:3] c4c2B2 | 
[V:1] F3EE2D2- | 
[V:2] c4=B4 | 
[V:3] A4G4 | 
[V:1] D2C2C4- | 
[V:2] A4G4 | 
[V:3] F4E4 | 
[V:1] C4=B,2A,2 | 
[V:2] F2F4E2 | 
[V:3] D8 | 
[V:1] C8- | 
[V:2] G8- | 
[V:3] C8- | 
[V:1] C8 | 
[V:2] G8 | 
[V:3] C8 | 
[V:1] z8 | 
[V:2] c4c4 | 
[V:3] z8 | 
[V:1] z8 | 
[V:2] A4F4 | 
[V:3] c4c4 | 
[V:1] c4c4 | 
[V:2] z4f4- | 
[V:3] A4F4- | 
[V:1] A4F4- | 
[V:2] f2e2c4 | 
[V:3] F4A4 | 
[V:1] F4A4 | 
[V:2] d2c2A4 | 
[V:3] B4c4 | 
[V:1] =B4c4- | 
[V:2] G4A4 | 
[V:3] d4c4 | 
[V:1] c4c4 | 
[V:2] F4c4 | 
[V:3] f4e4 | 
[V:1] =B2B4A2 | 
[V:2] G8 | 
[V:3] d6c2 | 
[V:1] A6GF | 
[V:2] A4F4 | 
[V:3] c8- | 
[V:1] E8 | 
[V:2] C8 | 
[V:3] c8 | 
[V:1] z4E4 | 
[V:2] A8 | 
[V:3] c8 | 
[V:1] F4F4 | 
[V:2] F8 | 
[V:3] z4A4 | 
[V:1] G4G4 | 
[V:2] z4d4 | 
[V:3] B4B4 | 
[V:1] A8 | 
[V:2] c4f4 | 
[V:3] A4F4 | 
[V:1] B8 | 
[V:2] d2e4d2 | 
[V:3] G4G4 | 
[V:1] A8 | 
[V:2] f4z4 | 
[V:3] F4E2D2- | 
[V:1] z4F4 | 
[V:2] d2e2c4 | 
[V:3] D2C2F4 | 
[V:1] E2D4C2 | 
[V:2] =B4A2c2- | 
[V:3] G4A4- | 
[V:1] F4G4 | 
[V:2] c2B2G4 | 
[V:3] A4B4 | 
[V:1] A8 | 
[V:2] F4z4 | 
[V:3] c6B2 | 
[V:1] B4c4- | 
[V:2] d4c2e2 | 
[V:3] G2F2A4 | 
[V:1] c2B2G3F | 
[V:2] f2d4c2 | 
[V:3] F2G2E4 | 
[V:1] A6B2 | 
[V:2] d6B2 | 
[V:3] D2F4G2 | 
[V:1] A2GFE3D | 
[V:2] c2d2B4 | 
[V:3] A2B2G4 | 
[V:1] F8 |]  
[V:2] c8 |]  
[V:3] F8 |]  



